X:150
T:Kitty's Wedding
R:hornpipe
M:4/4
L:1/8
K:Dmaj
|:fe|d2Bd A2FA|BAFA D2 ED|B,DA,D DFBF|AFDF E2fe|
d2Bd A2FA|BAFA D2 ED|B,DA,D DFBF|AFEF D2:|
|:fg|afed bafd|Adfd edBd|DFAd FAde|fdgf e2fg|
afed bafd|Adfd edBd|DFAd FAdf|eABc d2:|

